X:1
T:Effunde iram tuam
T:Effunde iram tuam
T:Jean Conseil
T:Source : Trium vocum cantiones---Nürnberg---J.Petreius---1541. Editor : André Vierendeels (18/04/16).
T:(ca.1498-1534)
T:Notes : Original clefs : C4, C4, F5 Editorial accidentals above the staff Original note values have been halved Square brackets indicate ligatures Text in m60 "pauperes" notated as "paupes" in original print Name of the composer in original print : "Concilium" 
T:©
T:©
T:©
T:©
T:©
T:©
T:©
C:Jean Conseil
Z:©
%%score [ 1 2 3 ]
L:1/8
Q:1/4=120
M:2/2
K:F
V:1 treble-8 nm="Tenor 1" snm="T 1"
V:2 treble-8 nm="Tenor 2" snm="T 2"
V:3 bass nm="Bass" snm="B"
V:1
 z8 | z8 | z8 | F4 c4 | c2 c2 c4 | B4 A2 FG | AB c3 B A2 | G4 F2 A2- | A2 G2 A2 B2 | c4 B4 | %10
w: |||Ef- fun-|de i- ram|tu- am _ _|_ _ in _ _|_ _ _||gen- tes,|
 z2 A2 B2 c2 | d2 d2 c4- | c8- | c4 z2 G2 | c6 c2 | c4 A4 | B2 B2 G2 c2- | cBAG A2 c2- | %18
w: quae te non|no- ve- runt,|_|* et|in re-|gna quae|no- men tu- um|_ _ _ _ _ non|
 c2 B2 A2 G2- | GFG/F/E/D/ E2 D2- | DC F4 E2 | A3 G FE F2- | FEDC D2 F2- | F2 ED E4 | F6 E2 | %25
w: _ in- vo- *||* * ca- ve-|||* * * runt,|non in-|
 D2 G2 F2 E2 | D2 F3 EDC | D2 D2 C2 G2- | GF F4 E2 | F2 c2 c2 c2 | d6 c2 | B2 A2 G2 c2 | %32
w: vo- ca- ve- *||||runt, qui- a com-|me- de-|runt Ia- cob, qui-|
 c2 d2 _e4- | e2 d2 c2 B2 | c8 | z8 | z2 c2 c2 A2 | c4 F2 A2 | B2 d4 c2- | c2 B2 c3 B/A/ | %40
w: a com- me|_ de- runt Ia-|cob,||et lo- cum|e- ius de-|so- la- *|* ve- * * *|
 G2 A4 GF | EC c4 c2 | d2 d2 c4- | c4 z2 A2 | c2 c2 d4 | c2 A2 B4 | A2 F2 G2 G2 | F3 E/D/ E2 F2- | %48
w: * runt, _ _|_ _ _ ne|me- mi- ne-|ris in-|i- qui- ta-|tum no- stra-|rum an- ti- qua-||
 F2 E2 FC F2- | F2 E2 F4 | z8 | z8 | z8 | z8 | z8 | z8 | z8 | z8 | z2 G4 G2 | c6 B2 | A2 G2 F2 E2 | %61
w: |* * rum,|||||||||qui- a|pau- pe-|res fa- cti su-|
 DC c4 B2 | c2 G4 G2 | c6 B2 | A2 G2 F2 E2 | DC F3 EED/E/ | F8 |] %67
w: mus _ ni- *|mis, qui- a|pau- pe-|res fa- cti su-|mus _ ni- * * * *|mis.|
V:2
 F4 c4 | c2 c2 c3 B | A2 G4 FE | D4 E2 F2- | F2 ED E2 F2- | F2 E2 FGAB | c2 A3 G F2- | F2 E2 F4 | %8
w: Ef- fun-|de i- ram _|_ tu- * *||* * * * am|_ in _ _ _ _|gen- * * *|* * tes,|
 z2 E2 F2 G2 | A2 A2 G4 | z4 z2 E2 | F2 G2 A2 A2 | G2 A4 GF | G2 A2 B4 | A2 G2 A2 FG | AGAB c4 | %16
w: quae te non|no- ve- runt,|quae|te _ _ non|no- ve- * *|||* * * * runt,|
 z8 | z8 | z8 | z8 | z4 G4 | c6 c2 | c4 A4 | B2 B2 G2 c2- | cBAG AG c2- | c2 B2 c4 | z4 z2 c2- | %27
w: ||||et|in re-|gna quae|no- men tu- *||* * um|non|
 c2 B2 A2 B2- | BAGF G2 G2 | F2 A2 A2 A2 | B6 A2 | G2 F2 E2 A2 | A2 A2 B4- | B2 A2 G2 F2 | %34
w: _ in- vo- ca-|* * * * * ve-|runt, qui- a com-|me- de-|runt Ia- cob, qui-|a com- me-|* de- runt Ia-|
 G2 G2 G2 E2 | G4 E2 A2 | A2 G2 A2 F2 | G4 z2 E2 | D2 F3 EDC | D4 C4 | E4 F4 | G4 z2 G2- | %42
w: cob, et lo- cum|e- ius, et|lo- c- um e-|ius de-|so- la- * * *||ve- *|runt, ne|
 G2 G2 A2 A2 | G4 z4 | z8 | z8 | z2 A2 c2 c2 | d4 c2 A2 | B4 A2 F2 | G2 G2 F4 | z2 G2 A4 | %51
w: _ me- mi- ne-|ris|||in- i- qui-|ta- tum no-|stra- rum an-|ti- qua- rum,|ci- to|
 F2 G4 E2 | F4 G2 G2 | A2 c2 B2 A2 | G2 A3 GFE | F2 G3 FED | C2 c3 BAG |"^-natural" AG c4 B2 | %58
w: anti- ci- pent|nos mi- se-|ri- cor- di- ae|tu- * * * *||||
 c4 z2 G2- | G2 G2 c4- | c2 B2 A2 G2 | F2 E2 D2 D2 | C8 | z2 G2 AGAB | c4 B2 A2 | G2 A2 B4 | A8 |] %67
w: ae, qui-|* a pau-|* pe- res fa-|cti su- mus ni-|mis,|fa- cti _ _ _|su- mus ni-||mis.|
V:3
 z8 | F,,4 C,4 | C,2 C,2 C,4 | B,,4 A,,2 F,,G,, | A,,B,, C,3 B,, A,,2 | G,,4 F,,4- | F,,4 z2 A,,2 | %7
w: |Ef- fun-|de i- ram|tu- am in _|_ _ _ _ _|gen- tes,|_ quae|
 B,,2 C,2 D,2 D,2 | C,3 B,, A,,2 G,,2 | F,,2 F,3 E,E,D,/E,/ | F,3 E, D,2 C,2 | B,,4 A,,3 B,, | %12
w: te non no- ve-|runt, _ _ [quae|te non- * * * *||no- ve- *|
 C,2 F,,G,, A,,B,,C,D, | E,C, F,3 E,E,D,/E,/ | F,2 C,2 F,4- | F,2 F,2 F,4 | D,4 _E,2 E,2 | %17
w: ||runt,] et in|_ re- gna|quae no- men|
 C,2 F,3 E,D,C, | D,4 z2 C,2- | C,2 B,,2 A,,2 B,,2- | B,,A,,G,,F,, G,,2 G,,2 | F,,8 | z4 z2 F,,2 | %23
w: tu- * * * *|um non|_ in- vo- ca-|* * * * * ve-|runt,|non|
 G,,2 G,,2 C,4 | F,,6 F,,2 | G,,2 G,,2 A,,2 C,2- | C,2 B,,2 A,,2 F,,2- | F,,2 G,,2 A,,2 G,,2- | %28
w: in- vo- ca-|* ve-|runt, [non in- vo-|* ca- * *||
 G,,2 A,,2 B,,2 C,2 | F,,8 | z8 | z4 z2 F,2 | F,2 F,2 G,4- | G,2 F,2 E,2 D,2 | C,8 | %35
w: * * * ve-|runt,]||qui-|a com- me-|* de- runt Ia-|cob,|
 z2 C,2 C,2 A,,2 | C,4 F,,2 F,2- | F,2 E,2 D,2 C,2 | B,,6 C,2 | G,,4 z2 C,2- | C,4 D,2 D,2 | %41
w: et lo- cum|e- ius de-|* so- la- *|ve- *|runt, ne|_ ne- mi-|
 C,6 B,,A,, | B,,4 A,,F,, F,2- | F,E,E,D,/E,/ F,4- | F,4 z2 D,2 | F,2 F,2 G,4 | F,2 D,2 E,4 | %47
w: ne- * *||* * * * * ris|_ in-|i- qui- ta-|tum vo- stra-|
 D,3 C,/B,,/ A,,2 F,,2 | G,,2 G,,2 F,,4 | z2 C,2 D,4 | B,,2 C,4 A,,2 | B,,4 C,4 | %52
w: rum _ _ _ an-|ti- qua- rum,|ci- to|an- ti- ci-|pent nos|
 A,,2 B,,4 A,,G,, | F,,2 C,2 D,2 F,2 | E,2 D,2 C,2 D,2- | D,C,B,,A,, B,,2 C,2- | %56
w: mi- se- ri- *|cor- di- ae tu-|||
 C,B,,A,,G,, F,,2 F,2- | F,E,D,C, D,4 | C,8- | C,8 | z8 | z8 | z4 z2 C,2- | C,2 C,2 F,4- | %64
w: ||ae,|_|||qui-|* a pau-|
 F,2 E,2 D,2 C,2 | B,,2 A,,2 G,,4 | F,,8 |] %67
w: * pes fa- cti|su- mus ni-|mis.|

